X:1
T:Then We’ll See Him
T:Then We’ll See Him
T:William Evander Penn
T:James Ferdinand Vina Saul, 1900
T:Public Domain Courtesy of the Cyber Hymnal™
T:Public Domain Courtesy of the Cyber Hymnal™
C:William Evander Penn
Z:Public Domain
Z:Courtesy of the Cyber Hymnal™
%%score ( 1 2 ) ( 3 4 )
L:1/8
Q:1/4=90
M:4/4
K:Ab
V:1 treble 
V:2 treble 
V:3 bass 
V:4 bass 
V:1
 [CE]>[CE] | [DF]>[DA] [DB]>[DA] [DF]<[CE] [CE]>[CE] | [DF]>[FA] [FA]>[DF] [CE]2 [EA]>[EA] | %3
w: 1.~When the|peo- ple of all na- tions Have been|told of Je- sus’ birth, And the|
w: 2.~When on|Green- land’s i- cy mount- ains And far|In- dia’s cor- al strands Ev- ery|
w: 3.~Praise the|Lord! the mist is clear- ing, And the|her- alds of the day Bring the|
w: 4.~Hark! we|hear the trum- pet sound- ing, See the|heav- en like a scroll, Roll- ing|
 [EB]>[EB] [EB]>[EB] [EB]>[EB] [Ec]>[Ec] | [EB]6 [EA]>[EB] | %5
w: sto- ry of His dy- ing love is|known, When the|
w: ear shall hear of Je- sus Christ the|Son, How they|
w: joy- ful news— oh! Bud of prom- ise,|bloom! For a|
w: back for us to hear the grand roll|call; Then de-|
 [Ec]>[Ec] [Ec]>[DB] [DB]<[CA] [CE]>[CE] | [DF]>[FA] [FA]>[DF] [CE]2 [CE]>[CE] | %7
w: tid- ings of sal- va- tion Have been|preached o’er all the earth, He will|
w: mocked Him, how they scourged Him, How they|nailed His lov- ing hands, How He|
w: sad- dened world in- vokes Thee, Pre- cious|One; Oh! come we pray; Sweep in|
w: lay no long- er, sin- ner, Have your|name up- on Christ’s roll; Ev- en|
 [DF]>[FA] [FA]>[_FB] [Ec]>[Ec] [DB]>[DB] | [CA]6 ||"^Refrain" [Ec]>[GB] | [FA]4 [DF]2 [FA]>[DF] | %11
w: come and claim the blood washed for His|own.|||
w: died on Cal- va- ry for ev- ery|one.|Then we’ll|see Him, then we’ll|
w: view and let Thy ran- somed en- ter|home.|||
w: so, Lord Je- sus, come and take us|all.|||
 [CE]4 [CA]2 [EA]>[EB] | [Ac]<[Ae] [Ae]>[Ae] [Ae]<[Ec] [EB]>[EA] | %13
w: ||
w: see Him, Then we’ll|see Him robed in beau- ty If we’ve|
w: ||
w: ||
 [DF]>[FA] [FA]>[DF] [DF]<[CE] [A,C]>[B,D] | [CE]4 [CA]2 [CA]>[CA] | %15
w: ||
w: lived in Christ- ian du- ty; Then we’ll|see Him, then we’ll|
w: ||
w: ||
 (B2 c2) [Ge]2 !fermata![Ge]>[Ae] | [Ae]>[Ae] [Ae]>[Ec] [FB]<[FA] [Ec]>[DB] | [CA]6 |] %18
w: |||
w: see * Him, We will|see Him in His beau- ty at the|dawn.|
w: |||
w: |||
V:2
 x2 | x8 | x8 | x8 | x8 | x8 | x8 | x8 | x6 || x2 | x8 | x8 | x8 | x8 | x8 | E4 x4 | x8 | x6 |] %18
V:3
 [A,,A,]>[A,,A,] | [D,A,]>[D,F,] [D,F,]>[D,F,] [A,,A,]<[A,,A,] [A,,A,]>[A,,A,] | %2
w: ~ ~|~ ~ ~ ~ ~ ~ ~ ~|
 [D,A,]>[D,A,] [D,A,]>[D,A,] [A,,A,]2 [C,A,]>[C,A,] | %3
w: ~ ~ ~ ~ ~ ~ ~|
 [E,G,]>[E,G,] [E,G,]>[E,G,] [E,G,]>[E,G,] A,>A, | G,6 [C,A,]>[B,,G,] | %5
w: ~ ~ ~ ~ ~ ~ ~ ~|~ ~ ~|
 [A,,A,]>[A,,A,] [A,,A,]>[A,,A,] [A,,A,]<[A,,A,] [A,,A,]>[A,,A,] | %6
w: ~ ~ ~ ~ ~ ~ ~ ~|
 [D,A,]>[D,A,] [D,A,]>[D,A,] [A,,A,]2 [A,,A,]>[A,,A,] | %7
w: ~ ~ ~ ~ ~ ~ ~|
 [D,A,]>[D,A,] [D,A,]>[D,A,] [E,A,]>[E,A,] [E,G,]>[E,G,] | [A,,A,]6 || z2 | %10
w: ~ ~ ~ ~ ~ ~ ~ ~|~||
 [D,A,]2 [D,A,]2 [D,A,]2 [D,A,]2 | [A,,A,]2 [A,,A,]2 [A,,A,]<[A,,A,] [C,A,]>[E,G,] | %12
w: Then we’ll see Him,|then we’ll see Him, ~ ~|
 A,<[A,C] [A,C]>[A,C] [A,C]<[A,E] [A,E]>[A,E] | [D,A,]>[D,A,] [D,A,]>[D,A,] [A,,A,]<[A,,A,] z2 | %14
w: ~ ~ ~ ~ ~ ~ ~ ~|~ ~ ~ ~ ~ ~|
 [A,,A,]2 [A,,A,]2 [A,,A,]2 [A,,A,]2 | [E,G,]2 [E,A,]2 [E,B,]<[E,B,] !fermata![A,C]>[A,C] | %16
w: Then we’ll see Him,|then we’ll see Him, * *|
 [A,C]>[A,C] [A,C]>[A,C] [D,D]<[D,D] [E,A,]>[E,G,] | [A,,A,]6 |] %18
w: ||
V:4
 x2 | x8 | x8 | x6 A,>A, | (E,4- E,D,) x2 | x8 | x8 | x8 | x6 || x2 | x8 | x8 | A,/ x15/2 | x8 | %14
 x8 | x8 | x8 | x6 |] %18

